X: 1117
T: Hardy Man the Fiddler
R:slip jig
N:"Collected by F. O'Neill"
B:O'Neill's 1117
Z:Transcribed by Michael Hogan
M:9/8
L:1/8
K:D
A2 ({B/A/}G) FDE F2G | A3 AGA cAG | ({A/B/}A2)G FDF F2G | Add ded cAG :|
(A<d)d d2e f2f | Add ded cAG | (A<d)d d2e f2g | agf ged cAG |
(A<d)d d2e f2f | Add ded cAG | dcA cde f2g | agf ged cAG ||


